img/foundation-icons/fi-laptop.svg

<svg xmlns="http://www.w3.org/2000/svg" width="100" height="100" viewBox="0 0 100 100"><g fill="#231F20"><path d="M14.022 67.7H85.98a4.978 4.978 0 0 0 4.975-4.978V18.628c0-2.75-2.23-4.976-4.976-4.976H14.02a4.976 4.976 0 0 0-4.976 4.976v44.094a4.976 4.976 0 0 0 4.976 4.977zm4.976-44.096h62.005v34.142H18.998V23.604zM95.325 72.686H4.675A2.294 2.294 0 0 0 2.38 74.98v5.555c0 .58.22 1.135.61 1.56l3.25 3.517a2.304 2.304 0 0 0 1.684.735H91.84c.61 0 1.197-.245 1.63-.68l3.485-3.52a2.3 2.3 0 0 0 .664-1.613V74.98a2.295 2.295 0 0 0-2.295-2.294zm-36.656 7.97c0 .28-.186.506-.416.506H41.746c-.23 0-.415-.227-.415-.507V78.39c0-.28.186-.503.416-.503h16.508c.23 0 .415.224.415.504v2.265z"/></g></svg>

<?xml version="1.0" encoding="utf-8"?>
<!-- Generator: Adobe Illustrator 17.0.0, SVG Export Plug-In . SVG Version: 6.00 Build 0)  -->
<!DOCTYPE svg PUBLIC "-//W3C//DTD SVG 1.1//EN" "http://www.w3.org/Graphics/SVG/1.1/DTD/svg11.dtd">
<svg version="1.1" id="Layer_1" xmlns="http://www.w3.org/2000/svg" xmlns:xlink="http://www.w3.org/1999/xlink" x="0px" y="0px"
	 width="100px" height="100px" viewBox="0 0 100 100" enable-background="new 0 0 100 100" xml:space="preserve">
<g>
	<path fill="#231F20" d="M14.022,67.699h71.957c2.747,0,4.976-2.229,4.976-4.977V18.628c0-2.75-2.229-4.976-4.976-4.976H14.022
		c-2.747,0-4.976,2.226-4.976,4.976v44.094C9.045,65.47,11.274,67.699,14.022,67.699z M18.998,23.604h62.005v34.142H18.998V23.604z"
		/>
	<path fill="#231F20" d="M95.325,72.686H4.675c-1.267,0-2.294,1.027-2.294,2.294v5.555c0,0.58,0.218,1.135,0.609,1.559l3.25,3.518
		c0.433,0.466,1.045,0.735,1.684,0.735h83.915c0.612,0,1.198-0.245,1.631-0.681l3.485-3.519c0.424-0.43,0.664-1.01,0.664-1.613
		V74.98C97.619,73.714,96.591,72.686,95.325,72.686z M58.669,80.655c0,0.28-0.185,0.507-0.415,0.507H41.746
		c-0.23,0-0.415-0.227-0.415-0.507v-2.264c0-0.28,0.185-0.504,0.415-0.504h16.508c0.23,0,0.415,0.224,0.415,0.504V80.655z"/>
</g>
</svg>
